images/background.svg

<svg xmlns="http://www.w3.org/2000/svg" width="608" height="453" viewBox="0 0 608 453" xmlns:xlink="http://www.w3.org/1999/xlink">
  <defs>
    <filter id="a" width="101%" height="103.1%" x="-.5%" y="-1.1%" filterUnits="objectBoundingBox">
      <feOffset dy="2" in="SourceAlpha" result="shadowOffsetOuter1"/>
      <feGaussianBlur stdDeviation="2" in="shadowOffsetOuter1" result="shadowBlurOuter1"/>
      <feColorMatrix values="0 0 0 0 0 0 0 0 0 0 0 0 0 0 0 0 0 0 0.5 0" in="shadowBlurOuter1" result="shadowMatrixOuter1"/>
      <feMerge>
        <feMergeNode in="shadowMatrixOuter1"/>
        <feMergeNode in="SourceGraphic"/>
      </feMerge>
    </filter>
    <ellipse id="b" cx="300.696" cy="297.383" rx="300.696" ry="297.383"/>
  </defs>
  <g fill="none" fill-rule="evenodd" transform="translate(3 -86)" filter="url(#a)" opacity=".04">
    <mask id="c" fill="white">
      <use xlink:href="#b"/>
    </mask>
    <path fill="#0E0E0E" d="M339.968194,-0.71794393 C488.374277,17.3473904 604.711122,146.18304 602.68134,297.69964 C600.43234,465.499481 465.676753,597.925278 298.83693,596.297147 C129.860557,594.651222 -5.43479042,458.591044 -2.88442432,292.868627 C-0.424268776,132.854182 123.258086,7.58699862 283.306011,-2.26158518 C289.30959,-3.40737607 295.393896,-4.36594913 301.554444,-5.12953761 C319.582429,-7.36710608 337.889289,-7.4071421 356.065708,-8.46587231 C356.268118,-6.24164918 356.475026,-4.01742604 356.677436,-1.79320291 C351.070328,-1.5674181 345.500458,-1.20939304 339.968194,-0.71794393 Z M339.968194,-0.71794393 C329.530995,-1.98845439 318.935178,-2.71108179 308.210762,-2.85518391 C299.821128,-2.96826745 291.515727,-2.76677183 283.306011,-2.26158518 C97.7171332,33.1584544 -10.6894332,247.486922 91.7362293,411.209446 C174.922245,544.177953 354.684822,572.35886 465.538036,469.039247 C566.509145,374.927918 553.27153,216.038314 438.815417,148.341859 C346.799828,93.9151186 230.000257,132.990271 197.992488,228.912117 C168.845446,316.248463 232.532631,401.151509 319.987249,391.538416 C362.547326,386.858651 395.706584,350.141175 393.430596,310.198576 C391.757339,280.803243 369.033443,257.702462 343.727694,261.643785 C335.991133,262.849314 327.148065,268.658985 322.798499,275.024711 C320.401065,278.534536 324.989025,288.42788 328.690879,293.961747 C339.252183,309.753732 336.243021,321.52432 318.516403,328.713009 C294.578046,338.419519 264.149074,323.063483 254.455884,295.091653 C243.908073,264.655383 249.87692,236.398853 270.797119,211.985779 C314.13535,161.406945 401.69792,164.818904 449.884996,218.529444 C519.343115,295.941306 490.578403,423.829688 392.688426,472.847117 C294.74897,521.886789 172.902643,486.43712 114.275708,391.84091 C39.3840052,271.016661 87.0673051,106.037135 217.158466,35.9073792 C255.674465,15.1476741 296.669577,3.12841362 339.968194,-0.71794393 Z" mask="url(#c)"/>
  </g>
</svg>

<svg xmlns="http://www.w3.org/2000/svg" width="608" height="453" xmlns:xlink="http://www.w3.org/1999/xlink"><defs><filter id="a" width="101%" height="103.1%" x="-.5%" y="-1.1%" filterUnits="objectBoundingBox"><feOffset dy="2" in="SourceAlpha" result="shadowOffsetOuter1"/><feGaussianBlur stdDeviation="2" in="shadowOffsetOuter1" result="shadowBlurOuter1"/><feColorMatrix values="0 0 0 0 0 0 0 0 0 0 0 0 0 0 0 0 0 0 0.5 0" in="shadowBlurOuter1" result="shadowMatrixOuter1"/><feMerge><feMergeNode in="shadowMatrixOuter1"/><feMergeNode in="SourceGraphic"/></feMerge></filter><ellipse id="b" cx="300.696" cy="297.383" rx="300.696" ry="297.383"/></defs><g fill="none" fill-rule="evenodd" transform="translate(3 -86)" filter="url(#a)" opacity=".04"><mask id="c" fill="#fff"><use xlink:href="#b"/></mask><path fill="#0E0E0E" d="M339.968-.718C488.374 17.347 604.711 146.183 602.681 297.7c-2.249 167.8-137.004 300.225-303.844 298.597C129.86 594.651-5.435 458.591-2.884 292.87-.424 132.854 123.258 7.587 283.306-2.261a283.059 283.059 0 0 1 18.248-2.869c18.028-2.237 36.335-2.277 54.512-3.336.202 2.224.409 4.449.611 6.673-5.607.226-11.177.584-16.709 1.075zm0 0a295.619 295.619 0 0 0-31.757-2.137c-8.39-.113-16.695.088-24.905.593C97.717 33.158-10.689 247.487 91.736 411.21c83.186 132.969 262.949 161.15 373.802 57.83 100.971-94.111 87.734-253-26.723-320.697C346.8 93.915 230 132.99 197.992 228.912c-29.147 87.336 34.54 172.24 121.995 162.626 42.56-4.68 75.72-41.397 73.444-81.34-1.674-29.395-24.398-52.496-49.703-48.554-7.737 1.205-16.58 7.015-20.93 13.38-2.397 3.51 2.191 13.404 5.893 18.938 10.561 15.792 7.552 27.562-10.175 34.751-23.938 9.707-54.367-5.65-64.06-33.621-10.548-30.437-4.58-58.693 16.341-83.106 43.338-50.58 130.9-47.167 179.088 6.543 69.458 77.412 40.693 205.3-57.197 254.318-97.939 49.04-219.785 13.59-278.412-81.006C39.384 271.017 87.067 106.037 217.158 35.907c38.516-20.76 79.512-32.779 122.81-36.625z" mask="url(#c)"/></g></svg>
